packages/icons/src/components/Logo/assets/dark/c-panel.svg

<svg width="21" height="20" viewBox="0 0 21 20" fill="none" xmlns="http://www.w3.org/2000/svg">
<path d="M1.68108 9.10759H2.95207L2.75562 9.86175C2.72789 9.96056 2.66863 10.0476 2.58686 10.1096C2.505 10.1728 2.40412 10.2062 2.30075 10.2045H1.71404C1.58492 10.2023 1.4589 10.2442 1.35675 10.3232C1.25235 10.4042 1.17659 10.5165 1.14052 10.6436C1.1146 10.7373 1.11143 10.8358 1.13129 10.931C1.15112 11.0172 1.18836 11.0984 1.24072 11.1696C1.29427 11.2403 1.36386 11.2973 1.44376 11.3358C1.52776 11.3773 1.62034 11.3985 1.71404 11.3977H2.07003C2.13537 11.3965 2.19729 11.4269 2.23615 11.4795C2.27769 11.5304 2.29105 11.5986 2.27175 11.6614L2.04761 12.4947H1.65208C1.39294 12.4973 1.13713 12.4361 0.907154 12.3167C0.687237 12.2053 0.494559 12.0469 0.342858 11.8526C0.193083 11.6584 0.0885692 11.4332 0.0369783 11.1934C-0.0183003 10.9393 -0.0115169 10.6756 0.056755 10.4247L0.0791686 10.3338C0.126626 10.1566 0.203266 9.98863 0.305942 9.83669C0.406922 9.68936 0.530632 9.55896 0.67247 9.45039C0.814256 9.34159 0.972787 9.25654 1.14184 9.19857C1.31511 9.13778 1.49746 9.10702 1.68108 9.10759ZM2.32317 12.5L3.42803 8.34817C3.45576 8.24759 3.51603 8.15904 3.59943 8.09634C3.6812 8.03196 3.78278 7.99794 3.88685 8.0001H5.06159C5.31878 7.9985 5.57254 8.05912 5.80124 8.17677C6.25155 8.40557 6.57499 8.82489 6.68196 9.31854C6.73759 9.57228 6.7299 9.83582 6.65954 10.0859L6.63713 10.1703C6.58983 10.3476 6.51366 10.516 6.41168 10.6686C6.31318 10.8194 6.1907 10.953 6.0491 11.0642C5.75964 11.2872 5.40457 11.4081 5.03917 11.4083H4.02133L4.2191 10.637C4.24647 10.5384 4.30526 10.4513 4.38654 10.3891C4.46883 10.3257 4.57007 10.2918 4.67396 10.2929H5.01017C5.28011 10.2923 5.51497 10.108 5.57974 9.84592C5.60533 9.75617 5.60805 9.66145 5.58765 9.57037C5.5684 9.484 5.53111 9.40268 5.47822 9.33173C5.42291 9.26256 5.35317 9.20632 5.27386 9.16692C5.19225 9.12498 5.10192 9.10284 5.01017 9.10232H4.37599L3.55987 12.1558C3.53154 12.2544 3.4724 12.3412 3.39111 12.4037C3.31125 12.4669 3.21214 12.5009 3.11028 12.5H2.32317ZM9.33599 10.2836L9.35314 10.2217C9.36152 10.1954 9.35607 10.1666 9.33863 10.1452C9.32231 10.1229 9.29638 10.1097 9.26875 10.1096H7.44138C7.22238 10.1105 7.03289 9.95741 6.98784 9.74309C6.9714 9.67106 6.9714 9.59625 6.98784 9.52422L7.10123 9.09705H9.57859C9.7251 9.09494 9.86977 9.12986 9.99917 9.19857C10.123 9.2623 10.2314 9.35228 10.3169 9.46226C10.4024 9.57255 10.4623 9.70045 10.4923 9.83669C10.5239 9.98039 10.5208 10.1296 10.483 10.2718L10.0387 11.9264C9.95009 12.2629 9.64442 12.4964 9.29644 12.4934L7.46907 12.4828C7.16497 12.4851 6.87744 12.3445 6.69251 12.1031C6.60501 11.9857 6.54385 11.8508 6.5132 11.7076C6.47892 11.5579 6.48255 11.402 6.52375 11.254L6.54616 11.1696C6.57307 11.0653 6.61767 10.9663 6.678 10.877C6.73825 10.7893 6.81163 10.7115 6.89555 10.6462C6.97931 10.5848 7.07232 10.5372 7.1711 10.5051C7.27413 10.4695 7.38248 10.4517 7.49149 10.4524H9.02616L8.91409 10.8743C8.88593 10.9729 8.82675 11.0598 8.74533 11.1222C8.66514 11.1847 8.56615 11.2181 8.4645 11.2171H7.77891C7.71955 11.2135 7.66687 11.2548 7.65629 11.3134C7.64403 11.3512 7.65254 11.3928 7.67871 11.4228C7.70277 11.4535 7.7399 11.4711 7.77891 11.4703H8.8864C8.9248 11.4708 8.96231 11.4588 8.9932 11.436C9.02294 11.4145 9.04325 11.3824 9.04989 11.3463L9.06044 11.3015L9.33599 10.2836ZM12.6097 9.10759C12.8706 9.10464 13.1282 9.16576 13.3599 9.28558C13.5808 9.39829 13.774 9.55859 13.9255 9.75495C14.0767 9.95226 14.1813 10.1812 14.2314 10.4247C14.2862 10.6796 14.2776 10.944 14.2063 11.1947L13.9255 12.2495C13.9084 12.3221 13.8652 12.3859 13.8042 12.4288C13.7455 12.4735 13.6737 12.4976 13.5999 12.4973H12.9921C12.853 12.5 12.7509 12.3674 12.789 12.2336L13.1265 10.9574C13.1526 10.8677 13.1557 10.773 13.1358 10.6818C13.1163 10.5953 13.0786 10.5139 13.025 10.4432C12.9126 10.296 12.7382 10.2093 12.553 10.2085H11.9228L11.3783 12.2521C11.3606 12.3245 11.3176 12.3881 11.257 12.4314C11.1962 12.477 11.122 12.5011 11.046 12.5H10.4435C10.3804 12.4993 10.3213 12.4691 10.284 12.4182C10.2413 12.3674 10.2274 12.2983 10.247 12.235L11.075 9.10759H12.6097ZM15.9216 10.1795C15.8779 10.2133 15.8449 10.2591 15.8267 10.3113L15.5736 11.2672C15.5581 11.3176 15.5684 11.3723 15.6013 11.4136C15.6318 11.4559 15.6809 11.4809 15.7331 11.4808H18.0628L17.8822 12.1493C17.8544 12.248 17.7951 12.335 17.7134 12.3971C17.6337 12.4605 17.5345 12.4945 17.4326 12.4934H15.3152C15.1686 12.4952 15.0237 12.4613 14.8933 12.3945C14.7691 12.3313 14.6605 12.2412 14.5755 12.1308C14.491 12.0189 14.4313 11.8904 14.4002 11.7537C14.3688 11.6111 14.3738 11.4628 14.4147 11.3226L14.7575 10.0463C14.7944 9.91007 14.8536 9.78086 14.9328 9.66398C15.0859 9.43459 15.3101 9.26181 15.5709 9.1722C15.7033 9.12482 15.843 9.10073 15.9836 9.101H17.4853C17.6322 9.09951 17.7771 9.13439 17.9072 9.20252C18.031 9.26629 18.1395 9.35628 18.225 9.46621C18.3107 9.57634 18.3694 9.70503 18.3964 9.84197C18.4265 9.98543 18.4229 10.1339 18.3858 10.2757L18.2843 10.6581C18.2432 10.8214 18.1468 10.9654 18.0114 11.0655C17.8786 11.1681 17.7151 11.2229 17.5473 11.2211H15.8491L15.9612 10.8044C15.9859 10.7056 16.0435 10.6181 16.1247 10.5566C16.2065 10.4934 16.3074 10.4599 16.4108 10.4616H17.0977C17.1572 10.4648 17.2099 10.4238 17.2216 10.3654L17.244 10.281C17.2642 10.1995 17.2041 10.1201 17.1201 10.1175H16.0746C16.0179 10.1196 15.9638 10.1415 15.9216 10.1795ZM18.0628 12.5L19.194 8.25324C19.2118 8.18017 19.2541 8.11545 19.314 8.06997C19.3748 8.02417 19.4489 7.99962 19.525 8.0001H20.1275C20.1944 7.99842 20.2581 8.0288 20.2989 8.08184C20.34 8.133 20.3524 8.20147 20.3319 8.26379L19.488 11.3977C19.4481 11.5582 19.3802 11.7103 19.2876 11.8473C19.1988 11.9796 19.0888 12.0963 18.962 12.1928C18.8352 12.2898 18.6936 12.366 18.5427 12.4182C18.3885 12.4723 18.2262 12.4999 18.0628 12.5Z" fill="#F26C32"/>
</svg>

<svg xmlns="http://www.w3.org/2000/svg" width="21" height="20" fill="none" viewBox="0 0 21 20">
    <path fill="#f26c32" d="M1.681 9.108h1.271l-.196.754a.47.47 0 0 1-.455.342h-.587a.57.57 0 0 0-.357.12.61.61 0 0 0-.116.846.6.6 0 0 0 .473.228h.356a.2.2 0 0 1 .166.082c.042.05.055.119.036.181l-.224.834h-.396a1.6 1.6 0 0 1-.745-.178 1.646 1.646 0 0 1-.85-1.892l.022-.091a1.65 1.65 0 0 1 1.063-1.135q.261-.092.54-.091m.642 3.392 1.105-4.152A.47.47 0 0 1 3.887 8h1.175c.257-.002.51.06.74.177.45.229.773.648.88 1.142a1.6 1.6 0 0 1-.022.767l-.023.084a1.7 1.7 0 0 1-.225.499q-.15.227-.363.395c-.29.223-.644.344-1.01.344H4.021l.198-.771a.47.47 0 0 1 .455-.344h.336c.27 0 .505-.185.57-.447a.56.56 0 0 0 .008-.276.6.6 0 0 0-.11-.238.6.6 0 0 0-.468-.23h-.634l-.816 3.054a.48.48 0 0 1-.169.248.45.45 0 0 1-.28.096zm7.013-2.216.017-.062a.08.08 0 0 0-.014-.077.1.1 0 0 0-.07-.035H7.44a.46.46 0 0 1-.453-.367.5.5 0 0 1 0-.219l.113-.427h2.48a.9.9 0 0 1 .42.102.96.96 0 0 1 .493.638.9.9 0 0 1-.009.435l-.444 1.654a.76.76 0 0 1-.743.567l-1.827-.01a.97.97 0 0 1-.956-.775.9.9 0 0 1 .01-.454l.023-.084a.94.94 0 0 1 .625-.665 1 1 0 0 1 .32-.053h1.535l-.112.422a.48.48 0 0 1-.169.248.45.45 0 0 1-.28.095H7.78a.12.12 0 0 0-.123.096.11.11 0 0 0 .023.11q.038.047.1.047h1.107a.2.2 0 0 0 .107-.034.14.14 0 0 0 .057-.09l.01-.044zm3.274-1.176c.26-.003.518.058.75.178a1.65 1.65 0 0 1 .846 1.91l-.28 1.053a.3.3 0 0 1-.122.18.34.34 0 0 1-.204.068h-.608a.207.207 0 0 1-.203-.263l.338-1.277a.56.56 0 0 0 .009-.275.6.6 0 0 0-.583-.473h-.63l-.545 2.043a.3.3 0 0 1-.121.18.34.34 0 0 1-.211.068h-.602a.2.2 0 0 1-.16-.082.2.2 0 0 1-.037-.183l.828-3.127zm3.312 1.072a.3.3 0 0 0-.095.131l-.253.956a.16.16 0 0 0 .027.147c.03.042.08.067.132.067h2.33l-.18.668a.47.47 0 0 1-.45.344h-2.118a.9.9 0 0 1-.422-.098.94.94 0 0 1-.493-.641.9.9 0 0 1 .015-.431l.343-1.277a1.28 1.28 0 0 1 .813-.874q.2-.07.413-.071h1.501a.9.9 0 0 1 .422.102 1 1 0 0 1 .318.263.95.95 0 0 1 .16.81l-.1.382a.73.73 0 0 1-.274.408.75.75 0 0 1-.464.155H15.85l.112-.417a.456.456 0 0 1 .45-.343h.687a.12.12 0 0 0 .124-.096l.022-.084a.132.132 0 0 0-.124-.164h-1.045a.24.24 0 0 0-.153.063m2.14 2.32 1.132-4.247a.33.33 0 0 1 .12-.183.35.35 0 0 1 .211-.07h.603a.21.21 0 0 1 .17.082c.042.051.054.12.034.182l-.844 3.134a1.45 1.45 0 0 1-.526.795 1.5 1.5 0 0 1-.9.307"/>
</svg>
